packages/base/core/src/svg/system/book.svg

<?xml version="1.0" encoding="UTF-8"?>
<svg width="24px" height="24px" viewBox="0 0 24 24" version="1.1" xmlns="http://www.w3.org/2000/svg" xmlns:xlink="http://www.w3.org/1999/xlink">
    <!-- Generator: Sketch 55.2 (78181) - https://sketchapp.com -->
    <title>Icons/System/book</title>
    <desc>Created with Sketch.</desc>
    <g id="Icons/System/book" stroke="none" stroke-width="1" fill="none" fill-rule="evenodd">
        <path d="M20,18.0001 L15.578,18.0001 L17.483,16.8571 C17.784,16.6771 17.969,16.3521 17.969,16.0001 L17.969,9.0001 L20,9.0001 L20,18.0001 Z M4,9.0001 L6.031,9.0001 L6.031,16.0001 C6.031,16.3501 6.213,16.6731 6.512,16.8541 L8.396,18.0001 L4,18.0001 L4,9.0001 Z M8.031,6.7781 L10.967,8.5621 L10.967,17.2221 L8.031,15.4371 L8.031,6.7781 Z M12.967,8.5661 L15.969,6.7661 L15.969,15.4341 L12.967,17.2341 L12.967,8.5661 Z M20,7.0001 L17.969,7.0001 L17.969,5.0001 C17.969,4.6401 17.775,4.3081 17.461,4.1301 C17.148,3.9511 16.763,3.9581 16.455,4.1431 L11.971,6.8321 L7.551,4.1461 C7.242,3.9591 6.856,3.9531 6.541,4.1281 C6.226,4.3061 6.031,4.6391 6.031,5.0001 L6.031,7.0001 L4,7.0001 C2.897,7.0001 2,7.8971 2,9.0001 L2,18.0001 C2,19.1031 2.897,20.0001 4,20.0001 L20,20.0001 C21.103,20.0001 22,19.1031 22,18.0001 L22,9.0001 C22,7.8971 21.103,7.0001 20,7.0001 L20,7.0001 Z" id="Color" fill="#0050D7"></path>
    </g>
</svg>

<svg xmlns="http://www.w3.org/2000/svg" width="24" height="24" viewBox="0 0 24 24">
    <path fill="#0050D7" fill-rule="evenodd" d="M20 18h-4.422l1.905-1.143a.998.998 0 0 0 .486-.857V9H20v9zM4 9h2.031v7c0 .35.182.673.481.854L8.396 18H4V9zm4.031-2.222l2.936 1.784v8.66l-2.936-1.785V6.778zm4.936 1.788l3.002-1.8v8.668l-3.002 1.8V8.566zM20 7h-2.031V5a1 1 0 0 0-1.514-.857l-4.484 2.69-4.42-2.687a1.007 1.007 0 0 0-1.01-.018c-.315.178-.51.511-.51.872v2H4c-1.103 0-2 .897-2 2v9c0 1.103.897 2 2 2h16c1.103 0 2-.897 2-2V9c0-1.103-.897-2-2-2z"/>
</svg>
